X:1
T:Herr, Wie Du Willst, 87.87.87
T:Herr, Wie Du Willst, 87.87.87
T:Deutsch Kitschenamt (Strassbur
T:Public Domain Courtesy of the Cyber Hymnal™
C:Deutsch Kitschenamt (Strassbur
Z:Public Domain
Z:Courtesy of the Cyber Hymnal™
%%score ( 1 2 ) ( 3 4 )
L:1/8
Q:1/4=125
M:4/4
K:G
V:1 treble 
V:2 treble 
V:3 bass 
V:4 bass 
V:1
 [DG]4 [DF]2 [B,G]2 | [DA]4 [CA]4 | [B,G]2 [DA]2 [DB]4 | [Ec]4 [DB]2 [DA]2 | %4
 [B,G]4 ([DF]2 [B,G]2) | [DA]4 [DG]4 | [DG]4 [DF]2 [B,G]2 | [DA]4 [CA]4 | [B,G]2 [DA]2 [DB]4 | %9
 [Ec]4 [DB]2 [DA]2 | [B,G]4 ([DF]2 [B,G]2) | [DA]4 [DG]4 | [DG]4 [DA]2 [Cc]2 | [DB]4 [EG]4 | %14
 [EA]2 [^DF]2 E4 | [DF]4 D2 D2 | [CA]4 [DB]4 | [Ec]2 [DA]2 [DG]4 | z4 [Dd]4 | [EB]4 [Ec]4 | %20
 [DA]4 G4 | (F2 G2 A4) | [DG]8 |] %23
V:2
 x8 | x8 | x8 | x8 | x8 | x8 | x8 | x8 | x8 | x8 | x8 | x8 | x8 | x8 | x4 E4 | x4 D2 D2 | x8 | x8 | %18
 x8 | x8 | x4 (B,2 C2) | D4- (E2 D2) | x8 |] %23
V:3
 [G,B,]4 [D,A,]2 [E,G,]2 | [D,F,]4 [A,,E,]4 | E,2 [D,F,]2 [G,,G,]4 | [C,G,]4 [G,,G,]2 [D,F,]2 | %4
 [E,G,]4 ([D,A,]2 [E,G,]2) | (G,2 F,2) [G,,B,]4 | [G,B,]4 [D,A,]2 [E,G,]2 | [D,F,]4 [A,,E,]4 | %8
 E,2 [D,F,]2 [G,,G,]4 | [C,G,]4 [G,,G,]2 [D,F,]2 | [E,G,]4 ([D,A,]2 [E,G,]2) | (G,2 F,2) [G,,B,]4 | %12
 [G,B,]4 [F,A,]2 [E,G,]2 | G,4 [E,B,]4 | [A,,C]2 [B,,B,]2 [E,G,]4 | [D,A,]4 [D,F,]2 [B,,G,]2 | %16
 [A,,E,]4 [G,,G,]4 | [C,G,]2 [D,F,]2 [G,,B,]4 | z4 [B,,G,]4 | [E,G,]4 [A,,A,]4 | [D,F,]4 [E,G,]4 | %21
 ([D,A,]2 G,4) [D,F,]2 | [G,,B,]8 |] %23
V:4
 x8 | x8 | E,2 x6 | x8 | x8 | D,4 x4 | x8 | x8 | E,2 x6 | x8 | x8 | D,4 x4 | x8 | G,4 x4 | x8 | %15
 x8 | x8 | x8 | x8 | x8 | x8 | x2 B,,2 C,2 x2 | x8 |] %23

